svg/color/xrp.svg

<svg width="64" height="65" viewBox="0 0 64 65" fill="none" xmlns="http://www.w3.org/2000/svg">
<g clip-path="url(#clip0_17919_2128)">
<path d="M31.9544 64.2125C49.6633 64.2125 63.9088 49.9673 63.9088 32.2581C63.9088 14.549 49.6633 0.303711 31.9544 0.303711C14.2452 0.303711 0 14.549 0 32.2581C0 49.9673 14.2452 64.2125 31.9544 64.2125Z" fill="white"/>
<path d="M31.9541 0.803711C49.3867 0.803711 63.409 14.825 63.4092 32.2578C63.4092 49.6908 49.3868 63.7129 31.9541 63.7129C14.5212 63.7127 0.5 49.6907 0.5 32.2578C0.500162 14.8251 14.5213 0.803868 31.9541 0.803711Z" stroke="#070B14" stroke-opacity="0.15"/>
<g clip-path="url(#clip1_17919_2128)">
<path d="M45.58 17H50.9277L39.7988 27.7887C35.7685 31.6936 29.2343 31.6936 25.2011 27.7887L14.0679 17H19.4199L27.8749 25.1955C29.1068 26.3843 30.767 27.0507 32.4967 27.0507C34.2263 27.0507 35.8865 26.3843 37.1184 25.1955L45.58 17Z" fill="#23292F"/>
<path d="M19.3513 46.5013H14L25.2012 35.6461C29.2314 31.7412 35.7657 31.7412 39.7988 35.6461L51 46.5013H45.6523L37.125 38.2393C35.8931 37.0505 34.2329 36.3841 32.5033 36.3841C30.7736 36.3841 29.1134 37.0505 27.8815 38.2393L19.3513 46.5013Z" fill="#23292F"/>
</g>
</g>
<rect x="0.5" y="0.803711" width="63" height="63" rx="31.5" stroke="#070B14" stroke-opacity="0.15"/>
<defs>
<clipPath id="clip0_17919_2128">
<rect y="0.303711" width="64" height="64" rx="32" fill="white"/>
</clipPath>
<clipPath id="clip1_17919_2128">
<rect width="37" height="30" fill="white" transform="translate(14 17)"/>
</clipPath>
</defs>
</svg>

<svg xmlns="http://www.w3.org/2000/svg" width="64" height="65" fill="none" viewBox="0 0 64 65"><g clip-path="url(#xrp_svg-a)"><path fill="#fff" d="M31.954 64.213A31.876 31.876 0 0 0 63.91 32.258 31.877 31.877 0 0 0 31.954.304 31.876 31.876 0 0 0 0 32.258a31.876 31.876 0 0 0 31.954 31.955"/><path stroke="#070B14" stroke-opacity=".15" d="M31.954.804A31.377 31.377 0 0 1 63.41 32.258a31.38 31.38 0 0 1-31.455 31.455A31.377 31.377 0 0 1 .5 32.258 31.376 31.376 0 0 1 31.954.804Z"/><g fill="#23292F" clip-path="url(#xrp_svg-b)"><path d="M45.58 17h5.348l-11.13 10.789c-4.03 3.905-10.564 3.905-14.597 0L14.068 17h5.352l8.455 8.196a6.66 6.66 0 0 0 4.622 1.855c1.73 0 3.39-.667 4.621-1.855zM19.351 46.501H14l11.201-10.855c4.03-3.905 10.565-3.905 14.598 0L51 46.501h-5.348l-8.527-8.262a6.66 6.66 0 0 0-4.622-1.855c-1.73 0-3.39.666-4.622 1.855z"/></g></g><rect width="63" height="63" x=".5" y=".804" stroke="#070B14" stroke-opacity=".15" rx="31.5"/><defs><clipPath id="xrp_svg-a"><rect width="64" height="64" y=".304" fill="#fff" rx="32"/></clipPath><clipPath id="xrp_svg-b"><path fill="#fff" d="M14 17h37v30H14z"/></clipPath></defs></svg>
